X:21
T:The Legacy
M:6/8
L:1/8
R:jig
K:G
|:"G"~G3 ~B3|~g3 gab|~G3 ~B3|"D"dBA A3|
"G"~G3 ~B3|~g3 gab|gfe edB|"D"dBA A3:|
|:"C"efe edB|"G"d3 dBd|"C"efe edB|"D"dBA A3|
"C"efe edB|"G"d3 def|"C"gfe edB|"D"dBA A3:|
